packages/ui-icons/src/icons/checkbox-check.svg

<?xml version="1.0" encoding="UTF-8" standalone="no"?>
<!DOCTYPE svg PUBLIC "-//W3C//DTD SVG 1.1//EN" "http://www.w3.org/Graphics/SVG/1.1/DTD/svg11.dtd">
<svg id="icon" viewBox="0 0 96 96" version="1.1" xmlns="http://www.w3.org/2000/svg" xmlns:xlink="http://www.w3.org/1999/xlink">
    <path d="M92.9,0.8C93.8,1.3 94.6,2.1 95.1,3C95.6,3.9 95.9,4.9 95.9,6L95.9,89.9C95.9,91.5 95.3,92.9 94.1,94.1C92.9,95.3 91.5,95.9 89.9,95.9L6,95.9C4.4,95.9 3,95.3 1.8,94.1C0.6,92.9 0,91.5 0,89.9L0,6C0,4.4 0.6,3 1.8,1.8C3,0.6 4.4,0 6,0L89.9,0C91,0 92,0.3 92.9,0.8ZM89.9,6L6,6L6,89.9L89.9,89.9L89.9,6Z"/>
    <path d="M70.591,29.757C72.109,29.897 72.211,30.264 72.623,30.705C73.683,31.84 73.839,33.474 72.561,34.865L42.43,65.249C41.925,65.721 41.798,65.755 41.508,65.883C40.404,66.368 39.079,66.093 38.178,65.257L23.354,50.414C22.319,49.294 22.488,48.952 22.477,48.349C22.434,46.01 25.663,44.377 27.599,46.174L40.293,58.884L68.301,30.641C68.301,30.641 69.556,29.742 70.591,29.757Z"/>
</svg>

<?xml version="1.0" encoding="utf-8"?>
<!-- Generator: Adobe Illustrator 24.0.1, SVG Export Plug-In . SVG Version: 6.00 Build 0)  -->
<svg version="1.1" id="icon" xmlns="http://www.w3.org/2000/svg" xmlns:xlink="http://www.w3.org/1999/xlink" x="0px" y="0px"
	 viewBox="0 0 95.9 95.9" style="enable-background:new 0 0 95.9 95.9;" xml:space="preserve">
<g>
	<path d="M92.9,0.8c0.9,0.5,1.7,1.3,2.2,2.2c0.5,0.9,0.8,1.9,0.8,3v83.9c0,1.6-0.6,3-1.8,4.2c-1.2,1.2-2.6,1.8-4.2,1.8H6
		c-1.6,0-3-0.6-4.2-1.8C0.6,92.9,0,91.5,0,89.9V6c0-1.6,0.6-3,1.8-4.2S4.4,0,6,0h83.9C91,0,92,0.3,92.9,0.8z M89.9,6H6v83.9h83.9V6z
		"/>
</g>
<path d="M70.4,29.7c0.8,0,1.5,0.3,2.1,0.9c0.6,0.6,0.9,1.3,0.9,2.2s-0.3,1.5-0.8,2.1l-29.8,30c-0.1,0.1-0.3,0.3-0.4,0.4
	c-0.6,0.6-1.3,0.9-2.1,0.9s-1.5-0.3-2.1-0.9L23.3,50.5c-0.1-0.2-0.3-0.4-0.4-0.6c-0.1-0.2-0.2-0.4-0.3-0.6c-0.1-0.2-0.1-0.4-0.1-0.7
	c0-0.2,0-0.4,0-0.7c0-0.2,0.1-0.4,0.1-0.6c0.1-0.2,0.2-0.4,0.3-0.6c0.1-0.2,0.2-0.4,0.4-0.5c0.6-0.6,1.3-0.9,2.2-0.9
	c0.8,0,1.5,0.3,2.2,0.9l12.6,12.6l28.1-28.2C68.9,30,69.6,29.7,70.4,29.7z"/>
</svg>
